src/front_assets/svg/like.svg

<svg width="17" height="17" viewBox="0 0 17 17" fill="none" xmlns="http://www.w3.org/2000/svg">
<path d="M12.8036 16.088H1.98675C1.69704 16.088 1.46219 15.8532 1.46219 15.5634V6.99557C1.46219 6.70586 1.69704 6.47101 1.98675 6.47101H4.40641C5.02061 6.47101 5.58977 6.14875 5.90577 5.62208L8.27539 1.67266C8.78676 0.820479 9.99107 0.739469 10.6119 1.51551C10.9045 1.8813 10.9988 2.36748 10.8642 2.81616L9.97035 5.79571C9.86937 6.13228 10.1214 6.47101 10.4728 6.47101H14.4727C15.6256 6.47101 16.463 7.56734 16.1596 8.67959L14.4905 14.7995C14.283 15.5603 13.5921 16.088 12.8036 16.088Z" stroke="#E2342D" stroke-width="1.4" stroke-linecap="round"/>
<path d="M4.52216 16.0879V6.47089" stroke="#E2342D" stroke-width="1.4" stroke-linecap="round" stroke-linejoin="round"/>
</svg>

<svg xmlns="http://www.w3.org/2000/svg" width="17" height="17" fill="none"><path stroke="#E2342D" stroke-linecap="round" stroke-width="1.4" d="M12.804 16.088H1.987a.525.525 0 0 1-.525-.525V6.996c0-.29.235-.525.525-.525h2.42c.614 0 1.183-.322 1.499-.849l2.37-3.95a1.426 1.426 0 0 1 2.588 1.144l-.894 2.98a.525.525 0 0 0 .503.675h4A1.75 1.75 0 0 1 16.16 8.68l-1.67 6.12a1.75 1.75 0 0 1-1.686 1.288Z"/><path stroke="#E2342D" stroke-linecap="round" stroke-linejoin="round" stroke-width="1.4" d="M4.522 16.088V6.47"/></svg>
